X:548
T:
C:O. Laugren
S:Av O. Laugren; uppt. såsom Laugren själv föredragit den.
R:vals
M:3/4
L:1/8
K:C
G2|(EC)(EG)(ce)|(dc)(BA) G2|(BG)(Bd) f2|(ag)(eg) c2|
(EC)(EG)(ce)|(dc)(BA) G2|(BA)(Ba)(gB)|c4::g2|
(ec)(eg)(ag)|(fe)(d^c) d2|(BG)(Bd)(fa)|(ag)(eg) c2|
(EC)(EG)(ce)|(dG)(Bd)(fa)|(ag)(eg)(fd)|1 c4:|2 c4 g2
|:e'4 c'2|(c'b)(c'd')(e'c')|a4 f2|(fe)(fg)(af)|
d4 c2|B4 A2|(GA)(Bc)(de)|1 (fg)(ag) e2:|2 c4|]

